!!!OTL: Was n&uuml;tzet mich mein Sehnen und Verlangen (2-32), S. 82f
!!!id: K1116
**kern
*clefG2
*k[]
*C:
{8g
8.g
16f
=1
4.e
8g
8cc
8b
8a
8e
=2
4g
4f}
8r
=3
{8f
8f
8dd
=4
4.dd
8cc
8b
8a
8g
8f
=5
2e}
8r
=6
{16g
16f
8e
16g
16g
=7
4.ee
8dd
8cc
8b
8a
8g
=8
8f
8dd
4.dd}
=9
{8cc
8b
8a
=10
4.g
8g
8b
8a
8g
8f
=11
2e}
8r
=12
{16g
16f
8e
16g
16g
=13
4.ee
8dd
8cc
8b
8a
8g
=14
8f
8dd
4.dd}
=15
{8cc
8b
8a
=16
4.g
8g
8b
8a
8g
8f
=17
2e}
8r
==
*-
!!!minrhy: 16
!!!meters: 4/4 ]  ZZ[6
!!!cut: Was n&uuml;tzet mich mein Sehnen und Verlangen (2-32), S. 82f
!!!reg: Luxemburg
!!!trd: KINTZELE, Guillaume: An der Ucht, Bd. 2, Luxemburg 1927
!!!rhy1: X_X_.X  X__.X_X_X_X_X_  X__X__0_
!!!rhy2: X_X_X_  X__.X_X_X_X_X_  X___0_
!!!key: K1116  16  C 4/4 ]  ZZ[6
!!!mod: HEPTATONIK IONISCH]  AMBITUS[8
!!!kad: 43+23+23
!!!akz: 3+15_+273_+3+14+2_573_+3+14+2_573_
!!!fot: 'a__b__bs'c__bs'c__
!!!for: 'a__aw_aw_aw_aw_aw_
!!!fok: 'Sd_^d_~a_\__~a_\__
!! PHRAS[AUFTAKTIG]
!!!fkt: erz&auml;hlendes Lied
!!!bem: in der Quelle mit einer 2. Stimme versehen
!! KINTZELE
!! PR[20] 2K[7] 2G[9] 3K[7] 3G[5] 4A[7] 4Ü[0] 5A[1] 6K[0] 6G[0]
!! 7K[1] 7G[0] 8A[1] MEHR[0] SI[37] ABS[147] SR[16] SP[22]
!! ST[45] 2k[8] 2g[18] 3k[7] 3g[2] 4d[2] 4ü[0] 5d[1] 6k[1] 6g[1]
!! 7k[0] 7g[0] 8d[1] mehr[0] si[42] dm[-5] sr[27] sp[16]
!! 1F[1] 2F[9] 3F[42] 4F[38] LF[3] 2P[1] 3P[1] 4P[5] TRI[5] DF[8] AB[162]
!! TF[0] U3K[0] U3[3] U4[0] U4Ü[0] U5[14] U6K[0] U6[3] U7K[0] U7[5]
!! N1[16] N2K[1] N2[18] N3K[0] N3[25] N4[9] N4Ü[0] N5[7] N6K[0] N6[0]
!!!n7k: 0] N7[0] O1[0] O2K[0] O2[0] O3K[0] O3[0] HÖ[0
!!!RNB: symbol: &auml;      = a umlaut  (UTF-8: Å„)
!!!RNB: symbol: &uuml;  = u umlaut (UTF-8: Ã¼)
